X:3127
T:Coalminer's Reel, The
R:reel
H:Also in D, #747. Different version, see #745.
Z:id:hn-reel-746
M:C|
K:G
DG~G2 GABc|d2BG AGEG|DG~G2 GABd|gedB A2GE|
DG~G2 GABc|d2BG AGEG|DG~G2 GABd|1 gedB G2GE:|2 gedB G2 (3def||
|:~g3e d2ge|d2BG AGEG|~g3e dega|bagb a2ga|
bg~g2 ageg|d2BG AGEG|DG~G2 GABd|1 gedB G2 (3def:|2 gedB G2GE||


